src/catppuccin-frappe-red-cursors/crosshair.svg

<?xml version="1.0" encoding="UTF-8" standalone="no"?>
<svg
   id="svg5327"
   width="32"
   height="32"
   version="1.1"
   sodipodi:docname="crosshair.svg"
   inkscape:version="1.1.2 (0a00cf5339, 2022-02-04)"
   xmlns:inkscape="http://www.inkscape.org/namespaces/inkscape"
   xmlns:sodipodi="http://sodipodi.sourceforge.net/DTD/sodipodi-0.dtd"
   xmlns="http://www.w3.org/2000/svg"
   xmlns:svg="http://www.w3.org/2000/svg">
  <sodipodi:namedview
     id="namedview11"
     pagecolor="#ffffff"
     bordercolor="#666666"
     borderopacity="1.0"
     inkscape:pageshadow="2"
     inkscape:pageopacity="0.0"
     inkscape:pagecheckerboard="0"
     showgrid="false"
     inkscape:zoom="34.62"
     inkscape:cx="15.973426"
     inkscape:cy="16.002311"
     inkscape:window-width="1896"
     inkscape:window-height="1020"
     inkscape:window-x="9"
     inkscape:window-y="45"
     inkscape:window-maximized="1"
     inkscape:current-layer="svg5327" />
  <defs
     id="defs5329">
    <filter
       id="filter852"
       style="color-interpolation-filters:sRGB"
       width="1.12"
       height="1.12"
       x="-.06"
       y="-.06">
      <feGaussianBlur
         id="feGaussianBlur854"
         stdDeviation=".575" />
    </filter>
    <filter
       id="filter818"
       style="color-interpolation-filters:sRGB"
       width="1.144"
       height="1.144"
       x="-0.072"
       y="-0.072">
      <feGaussianBlur
         id="feGaussianBlur820"
         stdDeviation=".69" />
    </filter>
  </defs>
  <path
     id="path831"
     style="color:#000000;font-style:normal;font-variant:normal;font-weight:normal;font-stretch:normal;font-size:medium;line-height:normal;font-family:sans-serif;font-variant-ligatures:normal;font-variant-position:normal;font-variant-caps:normal;font-variant-numeric:normal;font-variant-alternates:normal;font-feature-settings:normal;text-indent:0;text-align:start;text-decoration:none;text-decoration-line:none;text-decoration-style:solid;text-decoration-color:#000000;letter-spacing:normal;word-spacing:normal;text-transform:none;writing-mode:lr-tb;direction:ltr;text-orientation:mixed;dominant-baseline:auto;baseline-shift:baseline;text-anchor:start;white-space:normal;shape-padding:0;clip-rule:nonzero;display:inline;overflow:visible;visibility:visible;opacity:0.2;isolation:auto;mix-blend-mode:normal;color-interpolation:sRGB;color-interpolation-filters:linearRGB;solid-color:#000000;solid-opacity:1;vector-effect:none;fill:#000000;fill-opacity:1;fill-rule:nonzero;stroke:none;stroke-width:2;stroke-linecap:round;stroke-linejoin:round;stroke-miterlimit:4;stroke-dasharray:none;stroke-dashoffset:0;stroke-opacity:1;color-rendering:auto;image-rendering:auto;shape-rendering:auto;text-rendering:auto;enable-background:accumulate;filter:url(#filter818)"
     d="M 15.5 4.5 A 1.0001 1.0001 0 0 0 14.5 5.5 L 14.5 13.5 A 1.0001 1.0001 0 0 0 13.5 14.5 L 5.5 14.5 A 1.0001 1.0001 0 0 0 4.5 15.5 L 4.5 16.5 A 1.0001 1.0001 0 0 0 5.5 17.5 L 13.5 17.5 A 1.0001 1.0001 0 0 0 14.5 18.5 L 14.5 26.5 A 1.0001 1.0001 0 0 0 15.5 27.5 L 16.5 27.5 A 1.0001 1.0001 0 0 0 17.5 26.5 L 17.5 18.5 A 1.0001 1.0001 0 0 0 18.5 17.5 L 26.5 17.5 A 1.0001 1.0001 0 0 0 27.5 16.5 L 27.5 15.5 A 1.0001 1.0001 0 0 0 26.5 14.5 L 18.5 14.5 A 1.0001 1.0001 0 0 0 17.5 13.5 L 17.5 5.5 A 1.0001 1.0001 0 0 0 16.5 4.5 L 15.5 4.5 z M 14 14 L 17 14 L 17 17 L 14 17 L 14 14 z " />
  <path
     id="path824"
     style="color:#000000;font-style:normal;font-variant:normal;font-weight:normal;font-stretch:normal;font-size:medium;line-height:normal;font-family:sans-serif;font-variant-ligatures:normal;font-variant-position:normal;font-variant-caps:normal;font-variant-numeric:normal;font-variant-alternates:normal;font-feature-settings:normal;text-indent:0;text-align:start;text-decoration:none;text-decoration-line:none;text-decoration-style:solid;text-decoration-color:#000000;letter-spacing:normal;word-spacing:normal;text-transform:none;writing-mode:lr-tb;direction:ltr;text-orientation:mixed;dominant-baseline:auto;baseline-shift:baseline;text-anchor:start;white-space:normal;shape-padding:0;clip-rule:nonzero;display:inline;overflow:visible;visibility:visible;opacity:1;isolation:auto;mix-blend-mode:normal;color-interpolation:sRGB;color-interpolation-filters:linearRGB;solid-color:#000000;solid-opacity:1;vector-effect:none;fill:#303446;fill-opacity:1;fill-rule:nonzero;stroke:none;stroke-width:2;stroke-linecap:round;stroke-linejoin:round;stroke-miterlimit:4;stroke-dasharray:none;stroke-dashoffset:0;stroke-opacity:1;color-rendering:auto;image-rendering:auto;shape-rendering:auto;text-rendering:auto;enable-background:accumulate"
     d="M 15 4 A 1.0001 1.0001 0 0 0 14 5 L 14 13 A 1.0001 1.0001 0 0 0 13 14 L 5 14 A 1.0001 1.0001 0 0 0 4 15 L 4 16 A 1.0001 1.0001 0 0 0 5 17 L 13 17 A 1.0001 1.0001 0 0 0 14 18 L 14 26 A 1.0001 1.0001 0 0 0 15 27 L 16 27 A 1.0001 1.0001 0 0 0 17 26 L 17 18 A 1.0001 1.0001 0 0 0 18 17 L 26 17 A 1.0001 1.0001 0 0 0 27 16 L 27 15 A 1.0001 1.0001 0 0 0 26 14 L 18 14 A 1.0001 1.0001 0 0 0 17 13 L 17 5 A 1.0001 1.0001 0 0 0 16 4 L 15 4 z M 14.5 14.5 L 16.5 14.5 L 16.5 16.5 L 14.5 16.5 L 14.5 14.5 z " />
  <path
     id="rect817"
     style="opacity:1;fill:#E78284;fill-opacity:1;stroke:none;stroke-width:2.04939008;stroke-linecap:round;stroke-linejoin:round;stroke-miterlimit:4;stroke-dasharray:none;stroke-opacity:1"
     d="M 15 5 L 15 14 L 14 14 L 14 15 L 5 15 L 5 16 L 14 16 L 14 17 L 15 17 L 15 26 L 16 26 L 16 17 L 17 17 L 17 16 L 26 16 L 26 15 L 17 15 L 17 14 L 16 14 L 16 5 L 15 5 z M 15 15 L 16 15 L 16 16 L 15 16 L 15 15 z" />
</svg>

<svg xmlns="http://www.w3.org/2000/svg" width="32" height="32">
    <defs>
        <filter id="a" width="1.144" height="1.144" x="-.072" y="-.072" style="color-interpolation-filters:sRGB">
            <feGaussianBlur stdDeviation=".69"/>
        </filter>
    </defs>
    <path d="M15.5 4.5a1 1 0 0 0-1 1v8a1 1 0 0 0-1 1h-8a1 1 0 0 0-1 1v1a1 1 0 0 0 1 1h8a1 1 0 0 0 1 1v8a1 1 0 0 0 1 1h1a1 1 0 0 0 1-1v-8a1 1 0 0 0 1-1h8a1 1 0 0 0 1-1v-1a1 1 0 0 0-1-1h-8a1 1 0 0 0-1-1v-8a1 1 0 0 0-1-1zM14 14h3v3h-3z" style="color:#000;font-style:normal;font-variant:normal;font-weight:400;font-stretch:normal;font-size:medium;line-height:normal;font-family:sans-serif;font-variant-ligatures:normal;font-variant-position:normal;font-variant-caps:normal;font-variant-numeric:normal;font-variant-alternates:normal;font-feature-settings:normal;text-indent:0;text-align:start;text-decoration:none;text-decoration-line:none;text-decoration-style:solid;text-decoration-color:#000;letter-spacing:normal;word-spacing:normal;text-transform:none;writing-mode:lr-tb;direction:ltr;text-orientation:mixed;dominant-baseline:auto;baseline-shift:baseline;text-anchor:start;white-space:normal;shape-padding:0;clip-rule:nonzero;display:inline;overflow:visible;visibility:visible;opacity:.2;isolation:auto;mix-blend-mode:normal;color-interpolation:sRGB;color-interpolation-filters:linearRGB;solid-color:#000;solid-opacity:1;vector-effect:none;fill:#000;fill-opacity:1;fill-rule:nonzero;stroke:none;stroke-width:2;stroke-linecap:round;stroke-linejoin:round;stroke-miterlimit:4;stroke-dasharray:none;stroke-dashoffset:0;stroke-opacity:1;color-rendering:auto;image-rendering:auto;shape-rendering:auto;text-rendering:auto;enable-background:accumulate;filter:url(#a)"/>
    <path d="M15 4a1 1 0 0 0-1 1v8a1 1 0 0 0-1 1H5a1 1 0 0 0-1 1v1a1 1 0 0 0 1 1h8a1 1 0 0 0 1 1v8a1 1 0 0 0 1 1h1a1 1 0 0 0 1-1v-8a1 1 0 0 0 1-1h8a1 1 0 0 0 1-1v-1a1 1 0 0 0-1-1h-8a1 1 0 0 0-1-1V5a1 1 0 0 0-1-1zm-.5 10.5h2v2h-2z" style="color:#000;font-style:normal;font-variant:normal;font-weight:400;font-stretch:normal;font-size:medium;line-height:normal;font-family:sans-serif;font-variant-ligatures:normal;font-variant-position:normal;font-variant-caps:normal;font-variant-numeric:normal;font-variant-alternates:normal;font-feature-settings:normal;text-indent:0;text-align:start;text-decoration:none;text-decoration-line:none;text-decoration-style:solid;text-decoration-color:#000;letter-spacing:normal;word-spacing:normal;text-transform:none;writing-mode:lr-tb;direction:ltr;text-orientation:mixed;dominant-baseline:auto;baseline-shift:baseline;text-anchor:start;white-space:normal;shape-padding:0;clip-rule:nonzero;display:inline;overflow:visible;visibility:visible;opacity:1;isolation:auto;mix-blend-mode:normal;color-interpolation:sRGB;color-interpolation-filters:linearRGB;solid-color:#000;solid-opacity:1;vector-effect:none;fill:#303446;fill-opacity:1;fill-rule:nonzero;stroke:none;stroke-width:2;stroke-linecap:round;stroke-linejoin:round;stroke-miterlimit:4;stroke-dasharray:none;stroke-dashoffset:0;stroke-opacity:1;color-rendering:auto;image-rendering:auto;shape-rendering:auto;text-rendering:auto;enable-background:accumulate"/>
    <path d="M15 5v9h-1v1H5v1h9v1h1v9h1v-9h1v-1h9v-1h-9v-1h-1V5zm0 10h1v1h-1z" style="opacity:1;fill:#e78284;fill-opacity:1;stroke:none;stroke-width:2.04939008;stroke-linecap:round;stroke-linejoin:round;stroke-miterlimit:4;stroke-dasharray:none;stroke-opacity:1"/>
</svg>
